packages/dnb-ui-lib/assets/icons/einvoice.svg

<svg width="16" height="16" viewBox="0 0 16 16" fill="none" xmlns="http://www.w3.org/2000/svg">
<path fill-rule="evenodd" clip-rule="evenodd" d="M4.82843 0.899902C3.86193 0.899902 3.07843 1.6834 3.07843 2.6499V3.99988C3.07843 4.41409 3.41422 4.74988 3.82843 4.74988C4.24264 4.74988 4.57843 4.41409 4.57843 3.99988V2.6499C4.57843 2.51183 4.69036 2.3999 4.82843 2.3999H10.0038C10.0773 2.3999 10.1472 2.43228 10.1947 2.48842L12.8337 5.6073C12.8719 5.65244 12.8929 5.70966 12.8929 5.76879V13.3509C12.8929 13.489 12.7809 13.6009 12.6429 13.6009H4.82843C4.69036 13.6009 4.57843 13.489 4.57843 13.3509V12.9999C4.57843 12.5857 4.24264 12.2499 3.82843 12.2499C3.41422 12.2499 3.07843 12.5857 3.07843 12.9999V13.3509C3.07843 14.3174 3.86193 15.1009 4.82843 15.1009H12.6429C13.6094 15.1009 14.3929 14.3174 14.3929 13.3509V5.76879C14.3929 5.35488 14.2462 4.95436 13.9788 4.63839L11.3397 1.5195C11.0072 1.12654 10.5186 0.899902 10.0038 0.899902H4.82843ZM3.92748 6.16437C5.34298 6.16437 6.21698 7.15237 6.21698 8.71037C6.21698 8.80537 6.19798 8.98587 6.17898 9.04287H2.92998C3.01548 9.74587 3.55698 10.0499 4.00348 10.0499C4.68748 10.0499 4.97248 9.77437 5.19098 9.48937L6.08398 10.1069C5.75148 10.6674 5.13398 11.0949 3.99398 11.0949C2.54998 11.0949 1.59998 10.0404 1.59998 8.62487C1.59998 7.16187 2.54998 6.16437 3.92748 6.16437ZM4.93448 8.18787C4.83948 7.56087 4.51648 7.21887 3.92748 7.21887C3.36698 7.21887 3.03448 7.57037 2.93948 8.18787H4.93448Z" fill="black"/>
</svg>

<svg width="16" height="16" viewBox="0 0 16 16" fill="none" xmlns="http://www.w3.org/2000/svg"><path fill-rule="evenodd" clip-rule="evenodd" d="M4.828.9a1.75 1.75 0 00-1.75 1.75V4a.75.75 0 001.5 0V2.65a.25.25 0 01.25-.25h5.176a.25.25 0 01.19.088l2.64 3.12a.25.25 0 01.059.16v7.583a.25.25 0 01-.25.25H4.828a.25.25 0 01-.25-.25V13a.75.75 0 00-1.5 0v.35c0 .967.784 1.75 1.75 1.75h7.815a1.75 1.75 0 001.75-1.75V5.77a1.75 1.75 0 00-.414-1.13l-2.64-3.12A1.75 1.75 0 0010.005.9H4.828zm-.9 5.264c1.415 0 2.289.988 2.289 2.546 0 .095-.019.276-.038.333H2.93c.085.703.627 1.007 1.073 1.007.684 0 .97-.276 1.188-.56l.893.617c-.333.56-.95.988-2.09.988-1.444 0-2.394-1.055-2.394-2.47 0-1.463.95-2.46 2.327-2.46zm1.006 2.024c-.095-.627-.418-.97-1.007-.97-.56 0-.893.352-.988.97h1.995z" fill="#000"/></svg>
